actions/64/edit-copy.svg

<?xml version="1.0" encoding="UTF-8" standalone="no"?>
<svg
   xmlns:dc="http://purl.org/dc/elements/1.1/"
   xmlns:cc="http://creativecommons.org/ns#"
   xmlns:rdf="http://www.w3.org/1999/02/22-rdf-syntax-ns#"
   xmlns:svg="http://www.w3.org/2000/svg"
   xmlns="http://www.w3.org/2000/svg"
   xmlns:xlink="http://www.w3.org/1999/xlink"
   id="svg4427"
   height="64"
   width="64"
   version="1.1">
  <defs
     id="defs4429">
    <linearGradient
       id="linearGradient4087">
      <stop
         offset="0"
         style="stop-color:#ffffff;stop-opacity:1"
         id="stop4089" />
      <stop
         offset="0.51153916"
         style="stop-color:#ffffff;stop-opacity:0.23529412"
         id="stop4091" />
      <stop
         offset="0.58522105"
         style="stop-color:#ffffff;stop-opacity:0.15686275"
         id="stop4093" />
      <stop
         offset="1"
         style="stop-color:#ffffff;stop-opacity:0.39215687"
         id="stop4095" />
    </linearGradient>
    <linearGradient
       gradientTransform="matrix(0.8227934,0,0,-0.76606771,8.832938,50.781511)"
       gradientUnits="userSpaceOnUse"
       xlink:href="#linearGradient4220"
       id="linearGradient4315"
       y2="4.6566525"
       x2="28.26008"
       y1="30.945789"
       x1="28.26008" />
    <radialGradient
       gradientTransform="matrix(-0.7670311,0,0,-0.60723273,44.050848,63.616113)"
       gradientUnits="userSpaceOnUse"
       xlink:href="#linearGradient8662"
       id="radialGradient3436"
       fy="36.421127"
       fx="24.837126"
       r="15.644737"
       cy="36.421127"
       cx="24.837126" />
    <linearGradient
       id="linearGradient8662">
      <stop
         offset="0"
         style="stop-color:#000000;stop-opacity:1"
         id="stop8664" />
      <stop
         offset="1"
         style="stop-color:#000000;stop-opacity:0"
         id="stop8666" />
    </linearGradient>
    <linearGradient
       gradientTransform="matrix(0.06732488,0,0,0.01470022,-0.3411391,37.040146)"
       gradientUnits="userSpaceOnUse"
       xlink:href="#linearGradient5048"
       id="linearGradient3390"
       y2="609.50507"
       x2="302.85715"
       y1="366.64789"
       x1="302.85715" />
    <linearGradient
       id="linearGradient5048">
      <stop
         offset="0"
         style="stop-color:#000000;stop-opacity:0"
         id="stop5050" />
      <stop
         offset="0.5"
         style="stop-color:#000000;stop-opacity:1"
         id="stop5056" />
      <stop
         offset="1"
         style="stop-color:#000000;stop-opacity:0"
         id="stop5052" />
    </linearGradient>
    <radialGradient
       gradientTransform="matrix(-0.02303994,0,0,0.01470022,21.62311,37.040176)"
       gradientUnits="userSpaceOnUse"
       xlink:href="#linearGradient5060"
       id="radialGradient3392"
       fy="486.64789"
       fx="605.71429"
       r="117.14286"
       cy="486.64789"
       cx="605.71429" />
    <linearGradient
       id="linearGradient5060">
      <stop
         offset="0"
         style="stop-color:#000000;stop-opacity:1"
         id="stop5062" />
      <stop
         offset="1"
         style="stop-color:#000000;stop-opacity:0"
         id="stop5064" />
    </linearGradient>
    <radialGradient
       gradientTransform="matrix(0.02303995,0,0,0.01470022,26.360882,37.040176)"
       gradientUnits="userSpaceOnUse"
       xlink:href="#linearGradient5060"
       id="radialGradient3394"
       fy="486.64789"
       fx="605.71429"
       r="117.14286"
       cy="486.64789"
       cx="605.71429" />
    <linearGradient
       gradientTransform="matrix(1,0,0,0.95604943,-9.9999999e-8,-1.9118569)"
       gradientUnits="userSpaceOnUse"
       xlink:href="#linearGradient3600"
       id="linearGradient3396"
       y2="47.013336"
       x2="25.132275"
       y1="0.98520643"
       x1="25.132275" />
    <linearGradient
       id="linearGradient3600">
      <stop
         offset="0"
         style="stop-color:#f4f4f4;stop-opacity:1"
         id="stop3602" />
      <stop
         offset="1"
         style="stop-color:#dbdbdb;stop-opacity:1"
         id="stop3604" />
    </linearGradient>
    <linearGradient
       gradientTransform="matrix(0.8074968,0,0,0.89471984,59.410232,-2.9773544)"
       gradientUnits="userSpaceOnUse"
       xlink:href="#linearGradient3104"
       id="linearGradient3398"
       y2="2.9062471"
       x2="-51.786404"
       y1="50.786446"
       x1="-51.786404" />
    <linearGradient
       id="linearGradient3104">
      <stop
         offset="0"
         style="stop-color:#a0a0a0;stop-opacity:1"
         id="stop3106" />
      <stop
         offset="1"
         style="stop-color:#bebebe;stop-opacity:1"
         id="stop3108" />
    </linearGradient>
    <linearGradient
       gradientTransform="matrix(0.89189189,0,0,1.1351351,2.5945999,-4.7432314)"
       gradientUnits="userSpaceOnUse"
       xlink:href="#linearGradient3977"
       id="linearGradient3400"
       y2="43"
       x2="23.99999"
       y1="5.5641499"
       x1="23.99999" />
    <linearGradient
       id="linearGradient3977">
      <stop
         offset="0"
         style="stop-color:#ffffff;stop-opacity:1"
         id="stop3979" />
      <stop
         offset="0.03626217"
         style="stop-color:#ffffff;stop-opacity:0.23529412"
         id="stop3981" />
      <stop
         offset="0.95056331"
         style="stop-color:#ffffff;stop-opacity:0.15686275"
         id="stop3983" />
      <stop
         offset="1"
         style="stop-color:#ffffff;stop-opacity:0.39215687"
         id="stop3985" />
    </linearGradient>
    <linearGradient
       gradientTransform="matrix(0.06732488,0,0,0.01470022,-0.3411391,37.040146)"
       gradientUnits="userSpaceOnUse"
       xlink:href="#linearGradient5048-1"
       id="linearGradient3390-6"
       y2="609.50507"
       x2="302.85715"
       y1="366.64789"
       x1="302.85715" />
    <linearGradient
       id="linearGradient5048-1">
      <stop
         offset="0"
         style="stop-color:#000000;stop-opacity:0"
         id="stop5050-32" />
      <stop
         offset="0.5"
         style="stop-color:#000000;stop-opacity:1"
         id="stop5056-1" />
      <stop
         offset="1"
         style="stop-color:#000000;stop-opacity:0"
         id="stop5052-5" />
    </linearGradient>
    <radialGradient
       gradientTransform="matrix(-0.02303994,0,0,0.01470022,21.62311,37.040176)"
       gradientUnits="userSpaceOnUse"
       xlink:href="#linearGradient5060-9"
       id="radialGradient3392-9"
       fy="486.64789"
       fx="605.71429"
       r="117.14286"
       cy="486.64789"
       cx="605.71429" />
    <linearGradient
       id="linearGradient5060-9">
      <stop
         offset="0"
         style="stop-color:#000000;stop-opacity:1"
         id="stop5062-1" />
      <stop
         offset="1"
         style="stop-color:#000000;stop-opacity:0"
         id="stop5064-49" />
    </linearGradient>
    <radialGradient
       gradientTransform="matrix(0.02303995,0,0,0.01470022,26.360882,37.040176)"
       gradientUnits="userSpaceOnUse"
       xlink:href="#linearGradient5060-9"
       id="radialGradient3394-1"
       fy="486.64789"
       fx="605.71429"
       r="117.14286"
       cy="486.64789"
       cx="605.71429" />
    <linearGradient
       gradientTransform="matrix(1,0,0,0.95604943,-9.9999999e-8,-1.9118569)"
       gradientUnits="userSpaceOnUse"
       xlink:href="#linearGradient3600-7"
       id="linearGradient3396-0"
       y2="47.013336"
       x2="25.132275"
       y1="0.98520643"
       x1="25.132275" />
    <linearGradient
       id="linearGradient3600-7">
      <stop
         offset="0"
         style="stop-color:#f4f4f4;stop-opacity:1"
         id="stop3602-5" />
      <stop
         offset="1"
         style="stop-color:#dbdbdb;stop-opacity:1"
         id="stop3604-8" />
    </linearGradient>
    <linearGradient
       gradientTransform="matrix(0.8074968,0,0,0.89471984,59.410232,-2.9773544)"
       gradientUnits="userSpaceOnUse"
       xlink:href="#linearGradient3104-0"
       id="linearGradient3398-7"
       y2="2.9062471"
       x2="-51.786404"
       y1="50.786446"
       x1="-51.786404" />
    <linearGradient
       id="linearGradient3104-0">
      <stop
         offset="0"
         style="stop-color:#a0a0a0;stop-opacity:1"
         id="stop3106-4" />
      <stop
         offset="1"
         style="stop-color:#bebebe;stop-opacity:1"
         id="stop3108-8" />
    </linearGradient>
    <linearGradient
       id="linearGradient3977-4">
      <stop
         offset="0"
         style="stop-color:#ffffff;stop-opacity:1"
         id="stop3979-2" />
      <stop
         offset="0.03626217"
         style="stop-color:#ffffff;stop-opacity:0.23529412"
         id="stop3981-9" />
      <stop
         offset="0.95056331"
         style="stop-color:#ffffff;stop-opacity:0.15686275"
         id="stop3983-6" />
      <stop
         offset="1"
         style="stop-color:#ffffff;stop-opacity:0.39215687"
         id="stop3985-1" />
    </linearGradient>
    <linearGradient
       gradientTransform="matrix(0.89189189,0,0,1.1351351,2.5945999,-4.7432314)"
       gradientUnits="userSpaceOnUse"
       xlink:href="#linearGradient3977-4"
       id="linearGradient4425"
       y2="43"
       x2="23.99999"
       y1="5.5641499"
       x1="23.99999" />
    <linearGradient
       id="linearGradient4220">
      <stop
         id="stop4222"
         style="stop-color:#cdf87e;stop-opacity:1"
         offset="0" />
      <stop
         id="stop4224"
         style="stop-color:#a2e34f;stop-opacity:1"
         offset="0.26238" />
      <stop
         id="stop4226"
         style="stop-color:#68b723;stop-opacity:1"
         offset="0.74553752" />
      <stop
         id="stop4228"
         style="stop-color:#1d7e0d;stop-opacity:1"
         offset="1" />
    </linearGradient>
    <linearGradient
       gradientTransform="matrix(0,-0.78917906,0.85061918,0,13.02974,61.009036)"
       gradientUnits="userSpaceOnUse"
       xlink:href="#linearGradient4087"
       id="linearGradient3269"
       y2="15.991243"
       x2="20.576487"
       y1="15.991243"
       x1="38.940514" />
  </defs>
  <metadata
     id="metadata4432">
    <rdf:RDF>
      <cc:Work
         rdf:about="">
        <dc:format>image/svg+xml</dc:format>
        <dc:type
           rdf:resource="http://purl.org/dc/dcmitype/StillImage" />
        <dc:title></dc:title>
      </cc:Work>
    </rdf:RDF>
  </metadata>
  <g
     transform="translate(0.130532,4)"
     id="g3383-0">
    <rect
       width="32.508301"
       height="3.5700529"
       x="7.7378473"
       y="42.429947"
       id="rect2879-4"
       style="display:inline;overflow:visible;visibility:visible;opacity:0.3;fill:url(#linearGradient3390-6);fill-opacity:1;fill-rule:nonzero;stroke:none;stroke-width:1;marker:none" />
    <path
       d="m 7.7378475,42.430102 c 0,0 0,3.569856 0,3.569856 -1.1865002,0.0067 -2.8683795,-0.799823 -2.8683795,-1.785158 0,-0.985333 1.3240446,-1.784697 2.8683795,-1.784698 z"
       id="path2881-2"
       style="display:inline;overflow:visible;visibility:visible;opacity:0.3;fill:url(#radialGradient3392-9);fill-opacity:1;fill-rule:nonzero;stroke:none;stroke-width:1;marker:none" />
    <path
       d="m 40.246148,42.430102 c 0,0 0,3.569856 0,3.569856 1.1865,0.0067 2.86838,-0.799823 2.86838,-1.785158 0,-0.985333 -1.324045,-1.784697 -2.86838,-1.784698 z"
       id="path2883-2"
       style="display:inline;overflow:visible;visibility:visible;opacity:0.3;fill:url(#radialGradient3394-1);fill-opacity:1;fill-rule:nonzero;stroke:none;stroke-width:1;marker:none" />
    <path
       d="m 6.4999609,0.49996093 c 8.0202951,0 35.0000391,0.002801 35.0000391,0.002801 l 4.2e-5,43.99727707 c 0,0 -23.333387,0 -35.0000811,0 0,-14.666693 0,-29.333386 0,-44.00007779 z"
       id="path4160-2"
       style="display:inline;fill:url(#linearGradient3396-0);fill-opacity:1;stroke:url(#linearGradient3398-7);stroke-width:0.99992186;stroke-linecap:butt;stroke-linejoin:round;stroke-miterlimit:4;stroke-dasharray:none;stroke-dashoffset:0;stroke-opacity:1" />
    <path
       d="m 40.5,43.5 -33,0 0,-41.9999998 33,0 z"
       id="rect6741-1-0"
       style="fill:none;stroke:url(#linearGradient4425);stroke-width:1;stroke-linecap:round;stroke-linejoin:round;stroke-miterlimit:4;stroke-dasharray:none;stroke-dashoffset:0;stroke-opacity:1" />
  </g>
  <path
     d="m 21,12.997673 c 4.812162,0 20.999976,0.0024 20.999976,0.0024 L 42,49.000013 c 0,0 -14.000002,0 -21,0 0,-12.00074 0,-24.00148 0,-36.002222 z"
     id="path4160-3-9-6"
     style="display:inline;opacity:0.05;fill:#000000;fill-opacity:1;stroke:none" />
  <g
     transform="translate(16.130532,14)"
     id="g3383">
    <rect
       width="32.508301"
       height="3.5700529"
       x="7.7378473"
       y="42.429947"
       id="rect2879"
       style="display:inline;overflow:visible;visibility:visible;opacity:0.3;fill:url(#linearGradient3390);fill-opacity:1;fill-rule:nonzero;stroke:none;stroke-width:1;marker:none" />
    <path
       d="m 7.7378475,42.430102 c 0,0 0,3.569856 0,3.569856 -1.1865002,0.0067 -2.8683795,-0.799823 -2.8683795,-1.785158 0,-0.985333 1.3240446,-1.784697 2.8683795,-1.784698 z"
       id="path2881"
       style="display:inline;overflow:visible;visibility:visible;opacity:0.3;fill:url(#radialGradient3392);fill-opacity:1;fill-rule:nonzero;stroke:none;stroke-width:1;marker:none" />
    <path
       d="m 40.246148,42.430102 c 0,0 0,3.569856 0,3.569856 1.1865,0.0067 2.86838,-0.799823 2.86838,-1.785158 0,-0.985333 -1.324045,-1.784697 -2.86838,-1.784698 z"
       id="path2883"
       style="display:inline;overflow:visible;visibility:visible;opacity:0.3;fill:url(#radialGradient3394);fill-opacity:1;fill-rule:nonzero;stroke:none;stroke-width:1;marker:none" />
    <path
       d="m 6.4999609,0.49996093 c 8.0202951,0 35.0000391,0.002801 35.0000391,0.002801 l 4.2e-5,43.99727707 c 0,0 -23.333387,0 -35.0000811,0 0,-14.666693 0,-29.333386 0,-44.00007779 z"
       id="path4160"
       style="display:inline;fill:url(#linearGradient3396);fill-opacity:1;stroke:url(#linearGradient3398);stroke-width:0.99992186;stroke-linecap:butt;stroke-linejoin:round;stroke-miterlimit:4;stroke-dasharray:none;stroke-dashoffset:0;stroke-opacity:1" />
    <path
       d="m 40.5,43.5 -33,0 0,-41.9999998 33,0 z"
       id="rect6741-1"
       style="fill:none;stroke:url(#linearGradient3400);stroke-width:1;stroke-linecap:round;stroke-linejoin:round;stroke-miterlimit:4;stroke-dasharray:none;stroke-dashoffset:0;stroke-opacity:1" />
  </g>
  <path
     d="m 13,41.5 a 12,9.5000005 0 1 1 24,0 12,9.5000005 0 0 1 -24,0 z"
     id="path3501"
     style="display:inline;overflow:visible;visibility:visible;opacity:0.14117647;fill:url(#radialGradient3436);fill-opacity:1;fill-rule:evenodd;stroke:none;stroke-width:1;marker:none" />
  <path
     d="m 21.428823,21.142361 c -10.44734,7.054755 -6.428822,19.976108 7.071179,19.476108 l 0,6.357639 13.999999,-10.357639 -13.999999,-9.999999 0,6 C 19,34.11847 17.10844,26.064927 22.477706,21.142361 Z"
     id="path3503"
     style="display:block;overflow:visible;visibility:visible;fill:url(#linearGradient4315);fill-opacity:1.0;fill-rule:nonzero;stroke:none;stroke-width:0.96392483;stroke-linecap:butt;stroke-linejoin:round;stroke-miterlimit:7;stroke-dasharray:none;stroke-dashoffset:0;stroke-opacity:1;marker:none" />
  <path
     d="m 19.617299,23.815034 c -6.636632,6.38173 -2.515043,16.952934 9.818093,15.696743 l 0.129222,5.385366 11.251303,-8.278674 -11.251303,-8.037176 0,4.901666 c -13.61301,1.814943 -11.048275,-7.924085 -9.947315,-9.667925 z"
     id="path3505"
     style="display:block;overflow:visible;visibility:visible;opacity:0.7;fill:none;stroke:url(#linearGradient3269);stroke-width:0.96392483;stroke-linecap:butt;stroke-linejoin:miter;stroke-miterlimit:7;stroke-dasharray:none;stroke-dashoffset:0;stroke-opacity:1;marker:none;color:#000000;clip-rule:nonzero;isolation:auto;mix-blend-mode:normal;color-interpolation:sRGB;color-interpolation-filters:linearRGB;solid-color:#000000;solid-opacity:1;fill-opacity:1;fill-rule:nonzero;filter-blend-mode:normal;filter-gaussianBlur-deviation:0;color-rendering:auto;image-rendering:auto;shape-rendering:auto;text-rendering:auto;enable-background:accumulate" />
  <path
     d="m 21.428824,21.142361 c -10.44734,7.054755 -6.428823,19.976108 7.071178,19.476108 l 0,6.357639 13.999999,-10.357639 -13.999999,-9.999999 0,6 c -9.500001,1.5 -11.391561,-6.553543 -6.022295,-11.476109 z"
     id="path3503-6"
     style="display:inline;overflow:visible;visibility:visible;fill:none;fill-opacity:1;fill-rule:nonzero;stroke:#0f5a00;stroke-width:1;stroke-linecap:round;stroke-linejoin:miter;stroke-miterlimit:4;stroke-dasharray:none;stroke-dashoffset:0;stroke-opacity:1;marker:none;color:#000000;clip-rule:nonzero;opacity:0.5;isolation:auto;mix-blend-mode:normal;color-interpolation:sRGB;color-interpolation-filters:linearRGB;solid-color:#000000;solid-opacity:1;filter-blend-mode:normal;filter-gaussianBlur-deviation:0;color-rendering:auto;image-rendering:auto;shape-rendering:auto;text-rendering:auto;enable-background:accumulate" />
</svg>

<svg xmlns="http://www.w3.org/2000/svg" xmlns:xlink="http://www.w3.org/1999/xlink" viewBox="0 0 64 64"><defs><linearGradient id="m"><stop offset="0" stop-color="#fff"/><stop offset=".512" stop-color="#fff" stop-opacity=".235"/><stop offset=".585" stop-color="#fff" stop-opacity=".157"/><stop offset="1" stop-color="#fff" stop-opacity=".392"/></linearGradient><linearGradient gradientTransform="matrix(.8228 0 0 -.76607 8.833 50.782)" gradientUnits="userSpaceOnUse" xlink:href="#a" id="A" y2="4.657" x2="28.26" y1="30.946" x1="28.26"/><radialGradient gradientTransform="matrix(-.76703 0 0 -.60723 44.05 63.616)" gradientUnits="userSpaceOnUse" xlink:href="#b" id="z" fy="36.421" fx="24.837" r="15.645" cy="36.421" cx="24.837"/><linearGradient id="b"><stop offset="0"/><stop offset="1" stop-opacity="0"/></linearGradient><linearGradient gradientTransform="matrix(.06732 0 0 .0147 -.34 37.04)" gradientUnits="userSpaceOnUse" xlink:href="#c" id="t" y2="609.505" x2="302.857" y1="366.648" x1="302.857"/><linearGradient id="c"><stop offset="0" stop-opacity="0"/><stop offset=".5"/><stop offset="1" stop-opacity="0"/></linearGradient><radialGradient gradientTransform="matrix(-.02304 0 0 .0147 21.623 37.04)" gradientUnits="userSpaceOnUse" xlink:href="#d" id="u" fy="486.648" fx="605.714" r="117.143" cy="486.648" cx="605.714"/><linearGradient id="d"><stop offset="0"/><stop offset="1" stop-opacity="0"/></linearGradient><radialGradient gradientTransform="matrix(.02304 0 0 .0147 26.36 37.04)" gradientUnits="userSpaceOnUse" xlink:href="#d" id="v" fy="486.648" fx="605.714" r="117.143" cy="486.648" cx="605.714"/><linearGradient gradientTransform="matrix(1 0 0 .95605 0 -1.912)" gradientUnits="userSpaceOnUse" xlink:href="#e" id="w" y2="47.013" x2="25.132" y1=".985" x1="25.132"/><linearGradient id="e"><stop offset="0" stop-color="#f4f4f4"/><stop offset="1" stop-color="#dbdbdb"/></linearGradient><linearGradient gradientTransform="matrix(.8075 0 0 .89472 59.41 -2.977)" gradientUnits="userSpaceOnUse" xlink:href="#f" id="x" y2="2.906" x2="-51.786" y1="50.786" x1="-51.786"/><linearGradient id="f"><stop offset="0" stop-color="#a0a0a0"/><stop offset="1" stop-color="#bebebe"/></linearGradient><linearGradient gradientTransform="matrix(.8919 0 0 1.13514 2.595 -4.743)" gradientUnits="userSpaceOnUse" xlink:href="#g" id="y" y2="43" x2="24" y1="5.564" x1="24"/><linearGradient id="g"><stop offset="0" stop-color="#fff"/><stop offset=".036" stop-color="#fff" stop-opacity=".235"/><stop offset=".951" stop-color="#fff" stop-opacity=".157"/><stop offset="1" stop-color="#fff" stop-opacity=".392"/></linearGradient><linearGradient gradientTransform="matrix(.06732 0 0 .0147 -.34 37.04)" gradientUnits="userSpaceOnUse" xlink:href="#h" id="n" y2="609.505" x2="302.857" y1="366.648" x1="302.857"/><linearGradient id="h"><stop offset="0" stop-opacity="0"/><stop offset=".5"/><stop offset="1" stop-opacity="0"/></linearGradient><radialGradient gradientTransform="matrix(-.02304 0 0 .0147 21.623 37.04)" gradientUnits="userSpaceOnUse" xlink:href="#i" id="o" fy="486.648" fx="605.714" r="117.143" cy="486.648" cx="605.714"/><linearGradient id="i"><stop offset="0"/><stop offset="1" stop-opacity="0"/></linearGradient><radialGradient gradientTransform="matrix(.02304 0 0 .0147 26.36 37.04)" gradientUnits="userSpaceOnUse" xlink:href="#i" id="p" fy="486.648" fx="605.714" r="117.143" cy="486.648" cx="605.714"/><linearGradient gradientTransform="matrix(1 0 0 .95605 0 -1.912)" gradientUnits="userSpaceOnUse" xlink:href="#j" id="q" y2="47.013" x2="25.132" y1=".985" x1="25.132"/><linearGradient id="j"><stop offset="0" stop-color="#f4f4f4"/><stop offset="1" stop-color="#dbdbdb"/></linearGradient><linearGradient gradientTransform="matrix(.8075 0 0 .89472 59.41 -2.977)" gradientUnits="userSpaceOnUse" xlink:href="#k" id="r" y2="2.906" x2="-51.786" y1="50.786" x1="-51.786"/><linearGradient id="k"><stop offset="0" stop-color="#a0a0a0"/><stop offset="1" stop-color="#bebebe"/></linearGradient><linearGradient id="l"><stop offset="0" stop-color="#fff"/><stop offset=".036" stop-color="#fff" stop-opacity=".235"/><stop offset=".951" stop-color="#fff" stop-opacity=".157"/><stop offset="1" stop-color="#fff" stop-opacity=".392"/></linearGradient><linearGradient gradientTransform="matrix(.8919 0 0 1.13514 2.595 -4.743)" gradientUnits="userSpaceOnUse" xlink:href="#l" id="s" y2="43" x2="24" y1="5.564" x1="24"/><linearGradient id="a"><stop offset="0" stop-color="#cdf87e"/><stop offset=".262" stop-color="#a2e34f"/><stop offset=".746" stop-color="#68b723"/><stop offset="1" stop-color="#1d7e0d"/></linearGradient><linearGradient gradientTransform="matrix(0 -.78918 .85062 0 13.03 61.01)" gradientUnits="userSpaceOnUse" xlink:href="#m" id="B" y2="15.991" x2="20.576" y1="15.991" x1="38.941"/></defs><path overflow="visible" opacity=".3" fill="url(#n)" d="M7.738 42.43h32.508V46H7.738z" transform="translate(.13 4)"/><path d="M7.738 42.43V46c-1.187.007-2.87-.8-2.87-1.785 0-.986 1.326-1.785 2.87-1.785z" overflow="visible" opacity=".3" fill="url(#o)" transform="translate(.13 4)"/><path d="M40.246 42.43V46c1.187.007 2.87-.8 2.87-1.785 0-.986-1.326-1.785-2.87-1.785z" overflow="visible" opacity=".3" fill="url(#p)" transform="translate(.13 4)"/><path d="M6.5.5l35 .003V44.5h-35V.5z" fill="url(#q)" stroke="url(#r)" stroke-linejoin="round" transform="translate(.13 4)"/><path d="M40.5 43.5h-33v-42h33z" fill="none" stroke="url(#s)" stroke-linecap="round" stroke-linejoin="round" transform="translate(.13 4)"/><path d="M21 12.998L42 13v36H21V12.998z" opacity=".05"/><path overflow="visible" opacity=".3" fill="url(#t)" d="M7.738 42.43h32.508V46H7.738z" transform="translate(16.13 14)"/><path d="M7.738 42.43V46c-1.187.007-2.87-.8-2.87-1.785 0-.986 1.326-1.785 2.87-1.785z" overflow="visible" opacity=".3" fill="url(#u)" transform="translate(16.13 14)"/><path d="M40.246 42.43V46c1.187.007 2.87-.8 2.87-1.785 0-.986-1.326-1.785-2.87-1.785z" overflow="visible" opacity=".3" fill="url(#v)" transform="translate(16.13 14)"/><path d="M6.5.5l35 .003V44.5h-35V.5z" fill="url(#w)" stroke="url(#x)" stroke-linejoin="round" transform="translate(16.13 14)"/><path d="M40.5 43.5h-33v-42h33z" fill="none" stroke="url(#y)" stroke-linecap="round" stroke-linejoin="round" transform="translate(16.13 14)"/><path d="M13 41.5a12 9.5 0 1 1 24 0 12 9.5 0 0 1-24 0z" overflow="visible" opacity=".141" fill="url(#z)" fill-rule="evenodd"/><path d="M21.43 21.142C10.98 28.197 15 41.118 28.5 40.618v6.358l14-10.358-14-10v6c-9.5 1.5-11.392-6.553-6.022-11.476z" display="block" overflow="visible" fill="url(#A)"/><path d="M19.617 23.815c-6.636 6.382-2.515 16.953 9.818 15.697l.13 5.385 11.25-8.28-11.25-8.036v4.904c-13.613 1.815-11.05-7.924-9.948-9.668z" style="isolation:auto;mix-blend-mode:normal;filter-blend-mode:normal;filter-gaussianBlur-deviation:0" display="block" overflow="visible" opacity=".7" fill="none" stroke="url(#B)" stroke-width=".964" stroke-miterlimit="7" color="#000"/><path d="M21.43 21.142C10.98 28.197 15 41.118 28.5 40.618v6.358l14-10.358-14-10v6c-9.5 1.5-11.392-6.553-6.022-11.476z" style="isolation:auto;mix-blend-mode:normal;filter-blend-mode:normal;filter-gaussianBlur-deviation:0" overflow="visible" fill="none" stroke="#0f5a00" stroke-linecap="round" color="#000" opacity=".5"/></svg>
